X:84
T:Good Comrade - Parsons - D'Urfey
%%VWML:SBG-1-2-35-0
F:http://www.vwml.org/record/SBG/1/2/35
Z:Original Sibelius transcriptions by M. & S. Graebe
M:6/8
I:linebreak $
K:G
V:1 treble nm="P1"
V:1
 D | G2 A BG A | B2 c dB e | dB d G2 A | A4 z d | e2 f ed B |$ G2 A Bd e | dB G A B | G4 GF | %9
 E2 ^D E2 F | G2 A _B2 A | B2 B B2 _B |$ F4 z D | G2 A =BG A | B2 c dB e | d2 cB A A | G4 z x | %17
w: ||||||||
w: ||||||||
w: ||||||||
w: ||||||||
w: ||||||||
w: |||nat *|||||
T:Good Comrade - Masters
F:http://www.vwml.org/record/SBG/1/2/35
Z:Original Sibelius transcriptions by M. & S. Graebe
M:4/4
I:linebreak $
K:Eb
V:1 treble nm="P1"
V:1
 E | EG GB AF DF | FE EE E3 E | GA BB ec AB | cd ec B2 z G |$ AB cd ec AB | cd ec B2 z E | %7
 EG GB AF DF | FE EE E2 z x | %9


